X: 6329
T: Carter Bar, The
R: hornpipe
M: 4/4
K: Dmajor
d>B|(3ABA F>A f>e d>c|B<d g>B B>AA2|B>c d>B B>A d>f|a>g f<g e2d>B|
(3ABA F>A f>e d>c|B<d g>B B>AA2|B>c d>B c>d e>c|d2 [d2f2] [F2d2]:|
e>f|g>B A>B g>f e>g|f>d c>d B>A F>A|A>B d>A B>A F>A|G>F E>D E2 e>f|
g>B A>B g>f e>g|f>d c>d B>A F>A|A>B d>B c>d e>c|d2 [d2f2] [F2d2] e>f|
g>B A>B g>f e>g|f>d c>d B>A F>A|A>B d>A g>f e>d|(3efe (3dcB A2 d>B|
(3ABA F>A f>e d>c|B<d g>B B>AA2|B>c d>B c>d e>c|d2 [d2f2] [F2d2]||

